src/components/Logo/logo.svg

<?xml version="1.0" encoding="UTF-8"?>
<svg viewBox="0 0 71 53" version="1.1" xmlns="http://www.w3.org/2000/svg" xmlns:xlink="http://www.w3.org/1999/xlink">
    <!-- Generator: Sketch 50 (54983) - http://www.bohemiancoding.com/sketch -->
    <title>yld</title>
    <desc>Created with Sketch.</desc>
    <defs></defs>
    <g id="Symbols" stroke="none" stroke-width="1" fill="none" fill-rule="evenodd">
        <g id="yld" fill="#252945" fill-rule="nonzero">
            <path d="M40.9465556,25.1674735 C41.1749398,22.2070038 42.2521211,19.3003129 44.1780995,16.8471411 C48.5482757,11.2807273 56.124852,9.53166755 62.4297907,12.6337209 L62.4297907,0 L71,0 L71,41.2906977 L62.4297907,41.2906977 L62.4297907,40.0948228 C56.124852,43.1968762 48.5482757,41.4478164 44.1780995,35.8814027 C42.2521211,33.4282309 41.1749398,30.5215399 40.9465556,27.5610703 L40.9465556,41.283361 L32.3763463,41.283361 L32.3763463,16.7715947 L16.5488722,53 L7.17069701,53 L11.9030685,42.1710963 L0,15.6857697 L9.42145905,15.6857697 L16.5416582,31.5402824 L23.4742938,15.6857697 L32.3763463,15.6857697 L32.3763463,0 L40.9465556,0 L40.9465556,25.1674735 Z M55.9372079,32.8975637 L55.9444219,32.8975637 C59.4898532,32.8894813 62.3608991,29.9663322 62.3648649,26.3606035 C62.3648649,22.7503402 59.4871048,19.8236434 55.9372079,19.8236434 C52.387311,19.8236434 49.5095509,22.7503402 49.5095509,26.3606035 C49.5095509,29.9708669 52.387311,32.8975637 55.9372079,32.8975637 Z M16.5416582,15.6857697 C12.9917613,15.6857697 10.1140012,12.7590729 10.1140012,9.14880952 C10.1140012,5.53854613 12.9917613,2.61184939 16.5416582,2.61184939 C20.0915551,2.61184939 22.9693152,5.53854613 22.9693152,9.14880952 C22.9693152,12.7590729 20.0915551,15.6857697 16.5416582,15.6857697 Z" id="Combined-Shape"></path>
        </g>
    </g>
</svg>

<svg viewBox="0 0 71 53" xmlns="http://www.w3.org/2000/svg"><path d="M40.947 25.167a15.366 15.366 0 0 1 3.231-8.32c4.37-5.566 11.947-7.315 18.252-4.213V0H71v41.29h-8.57v-1.195c-6.305 3.102-13.882 1.353-18.252-4.214a15.366 15.366 0 0 1-3.231-8.32v13.722h-8.57V16.772L16.548 53H7.17l4.732-10.829L0 15.686h9.421l7.12 15.854 6.933-15.854h8.902V0h8.57v25.167zm14.99 7.73h.007c3.546-.008 6.417-2.93 6.42-6.536 0-3.61-2.877-6.537-6.427-6.537S49.51 22.75 49.51 26.36c0 3.61 2.877 6.537 6.427 6.537zM16.542 15.687c-3.55 0-6.428-2.927-6.428-6.537s2.878-6.537 6.428-6.537 6.427 2.927 6.427 6.537-2.877 6.537-6.427 6.537z" fill="#252945" fill-rule="nonzero"/></svg>
